images/3235295.svg

<?xml version="1.0" encoding="UTF-8"?>
<svg xmlns="http://www.w3.org/2000/svg" xmlns:xlink="http://www.w3.org/1999/xlink" width="300pt" height="300pt" viewBox="0 0 300 300" version="1.1">
<defs>
<g>
<symbol overflow="visible" id="glyph0-0">
<path style="stroke:none;" d="M 0.59375 2.125 L 0.59375 -8.46875 L 6.59375 -8.46875 L 6.59375 2.125 Z M 1.265625 1.453125 L 5.9375 1.453125 L 5.9375 -7.78125 L 1.265625 -7.78125 Z M 1.265625 1.453125 "/>
</symbol>
<symbol overflow="visible" id="glyph0-1">
<path style="stroke:none;" d="M 1.171875 -8.75 L 2.765625 -8.75 L 6.65625 -1.4375 L 6.65625 -8.75 L 7.796875 -8.75 L 7.796875 0 L 6.203125 0 L 2.328125 -7.3125 L 2.328125 0 L 1.171875 0 Z M 1.171875 -8.75 "/>
</symbol>
<symbol overflow="visible" id="glyph0-2">
<path style="stroke:none;" d="M 4.734375 -7.953125 C 3.867188 -7.953125 3.179688 -7.628906 2.671875 -6.984375 C 2.171875 -6.347656 1.921875 -5.472656 1.921875 -4.359375 C 1.921875 -3.265625 2.171875 -2.394531 2.671875 -1.75 C 3.179688 -1.113281 3.867188 -0.796875 4.734375 -0.796875 C 5.585938 -0.796875 6.265625 -1.113281 6.765625 -1.75 C 7.273438 -2.394531 7.53125 -3.265625 7.53125 -4.359375 C 7.53125 -5.472656 7.273438 -6.347656 6.765625 -6.984375 C 6.265625 -7.628906 5.585938 -7.953125 4.734375 -7.953125 Z M 4.734375 -8.90625 C 5.953125 -8.90625 6.925781 -8.492188 7.65625 -7.671875 C 8.394531 -6.847656 8.765625 -5.742188 8.765625 -4.359375 C 8.765625 -2.984375 8.394531 -1.882812 7.65625 -1.0625 C 6.925781 -0.238281 5.953125 0.171875 4.734375 0.171875 C 3.503906 0.171875 2.519531 -0.238281 1.78125 -1.0625 C 1.039062 -1.882812 0.671875 -2.984375 0.671875 -4.359375 C 0.671875 -5.742188 1.039062 -6.847656 1.78125 -7.671875 C 2.519531 -8.492188 3.503906 -8.90625 4.734375 -8.90625 Z M 4.734375 -8.90625 "/>
</symbol>
<symbol overflow="visible" id="glyph0-3">
<path style="stroke:none;" d="M 1.171875 -8.75 L 2.359375 -8.75 L 2.359375 -5.15625 L 6.65625 -5.15625 L 6.65625 -8.75 L 7.84375 -8.75 L 7.84375 0 L 6.65625 0 L 6.65625 -4.171875 L 2.359375 -4.171875 L 2.359375 0 L 1.171875 0 Z M 1.171875 -8.75 "/>
</symbol>
</g>
</defs>
<g id="surface35253">
<rect x="0" y="0" width="300" height="300" style="fill:rgb(100%,100%,100%);fill-opacity:1;stroke:none;"/>
<path style="fill:none;stroke-width:1.2;stroke-linecap:butt;stroke-linejoin:miter;stroke:rgb(0%,0%,0%);stroke-opacity:1;stroke-miterlimit:10;" d="M 36.574219 194.550781 L 61.632812 179.316406 "/>
<path style="fill:none;stroke-width:1.2;stroke-linecap:butt;stroke-linejoin:miter;stroke:rgb(0%,0%,0%);stroke-opacity:1;stroke-miterlimit:10;" d="M 61.632812 179.316406 L 74.492188 186.359375 "/>
<path style="fill:none;stroke-width:1.2;stroke-linecap:butt;stroke-linejoin:miter;stroke:rgb(0%,0%,100%);stroke-opacity:1;stroke-miterlimit:10;" d="M 74.492188 186.359375 L 87.355469 193.402344 "/>
<path style="fill:none;stroke-width:1.2;stroke-linecap:butt;stroke-linejoin:miter;stroke:rgb(0%,0%,0%);stroke-opacity:1;stroke-miterlimit:10;" d="M 67.519531 174.675781 L 77.808594 180.308594 "/>
<path style="fill:none;stroke-width:1.2;stroke-linecap:butt;stroke-linejoin:miter;stroke:rgb(0%,0%,100%);stroke-opacity:1;stroke-miterlimit:10;" d="M 77.808594 180.308594 L 88.097656 185.941406 "/>
<path style="fill:none;stroke-width:1.2;stroke-linecap:butt;stroke-linejoin:miter;stroke:rgb(0%,0%,0%);stroke-opacity:1;stroke-miterlimit:10;" d="M 60.972656 150 L 61.632812 179.316406 "/>
<path style="fill:none;stroke-width:1.2;stroke-linecap:butt;stroke-linejoin:miter;stroke:rgb(0%,0%,100%);stroke-opacity:1;stroke-miterlimit:10;" d="M 87.355469 193.402344 L 99.882812 185.785156 "/>
<path style="fill:none;stroke-width:1.2;stroke-linecap:butt;stroke-linejoin:miter;stroke:rgb(0%,0%,0%);stroke-opacity:1;stroke-miterlimit:10;" d="M 99.882812 185.785156 L 112.414062 178.171875 "/>
<path style=" stroke:none;fill-rule:nonzero;fill:rgb(100%,100%,100%);fill-opacity:1;" d="M 83.355469 186.402344 L 92.355469 186.402344 L 92.355469 200.402344 L 83.355469 200.402344 Z M 83.355469 186.402344 "/>
<g style="fill:rgb(0%,0%,100%);fill-opacity:1;">
  <use xlink:href="#glyph0-1" x="83.355469" y="197.541016"/>
</g>
<path style="fill:none;stroke-width:1.2;stroke-linecap:butt;stroke-linejoin:miter;stroke:rgb(0%,0%,0%);stroke-opacity:1;stroke-miterlimit:10;" d="M 112.414062 178.171875 L 138.132812 192.253906 "/>
<path style="fill:none;stroke-width:1.2;stroke-linecap:butt;stroke-linejoin:miter;stroke:rgb(0%,0%,0%);stroke-opacity:1;stroke-miterlimit:10;" d="M 118.296875 173.527344 L 138.875 184.792969 "/>
<path style="fill:none;stroke-width:1.2;stroke-linecap:butt;stroke-linejoin:miter;stroke:rgb(0%,0%,0%);stroke-opacity:1;stroke-miterlimit:10;" d="M 111.75 148.851562 L 112.414062 178.171875 "/>
<path style="fill:none;stroke-width:1.2;stroke-linecap:butt;stroke-linejoin:miter;stroke:rgb(0%,0%,0%);stroke-opacity:1;stroke-miterlimit:10;" d="M 138.132812 192.253906 L 150.664062 184.640625 "/>
<path style="fill:none;stroke-width:1.2;stroke-linecap:butt;stroke-linejoin:miter;stroke:rgb(0%,0%,100%);stroke-opacity:1;stroke-miterlimit:10;" d="M 150.664062 184.640625 L 163.191406 177.023438 "/>
<path style="fill:none;stroke-width:1.2;stroke-linecap:butt;stroke-linejoin:miter;stroke:rgb(0%,0%,100%);stroke-opacity:1;stroke-miterlimit:10;" d="M 163.191406 177.023438 L 162.859375 162.363281 "/>
<path style="fill:none;stroke-width:1.2;stroke-linecap:butt;stroke-linejoin:miter;stroke:rgb(0%,0%,0%);stroke-opacity:1;stroke-miterlimit:10;" d="M 162.859375 162.363281 L 162.527344 147.707031 "/>
<path style="fill:none;stroke-width:1.2;stroke-linecap:butt;stroke-linejoin:miter;stroke:rgb(0%,0%,100%);stroke-opacity:1;stroke-miterlimit:10;" d="M 156.226562 174.246094 L 155.960938 162.519531 "/>
<path style="fill:none;stroke-width:1.2;stroke-linecap:butt;stroke-linejoin:miter;stroke:rgb(0%,0%,0%);stroke-opacity:1;stroke-miterlimit:10;" d="M 155.960938 162.519531 L 155.695312 150.792969 "/>
<path style=" stroke:none;fill-rule:nonzero;fill:rgb(100%,100%,100%);fill-opacity:1;" d="M 159.191406 170.023438 L 168.191406 170.023438 L 168.191406 184.023438 L 159.191406 184.023438 Z M 159.191406 170.023438 "/>
<g style="fill:rgb(0%,0%,100%);fill-opacity:1;">
  <use xlink:href="#glyph0-1" x="159.191406" y="181.162109"/>
</g>
<path style="fill:none;stroke-width:1.2;stroke-linecap:butt;stroke-linejoin:miter;stroke:rgb(0%,0%,0%);stroke-opacity:1;stroke-miterlimit:10;" d="M 162.527344 147.707031 L 149.667969 140.664062 "/>
<path style="fill:none;stroke-width:1.2;stroke-linecap:butt;stroke-linejoin:miter;stroke:rgb(0%,0%,100%);stroke-opacity:1;stroke-miterlimit:10;" d="M 149.667969 140.664062 L 136.808594 133.621094 "/>
<path style="fill:none;stroke-width:1.2;stroke-linecap:butt;stroke-linejoin:miter;stroke:rgb(0%,0%,0%);stroke-opacity:1;stroke-miterlimit:10;" d="M 162.527344 147.707031 L 175.058594 140.089844 "/>
<path style="fill:none;stroke-width:1.2;stroke-linecap:butt;stroke-linejoin:miter;stroke:rgb(0%,0%,100%);stroke-opacity:1;stroke-miterlimit:10;" d="M 175.058594 140.089844 L 187.585938 132.472656 "/>
<path style="fill:none;stroke-width:1.2;stroke-linecap:butt;stroke-linejoin:miter;stroke:rgb(0%,0%,100%);stroke-opacity:1;stroke-miterlimit:10;" d="M 136.808594 133.621094 L 124.277344 141.238281 "/>
<path style="fill:none;stroke-width:1.2;stroke-linecap:butt;stroke-linejoin:miter;stroke:rgb(0%,0%,0%);stroke-opacity:1;stroke-miterlimit:10;" d="M 124.277344 141.238281 L 111.75 148.851562 "/>
<path style="fill:none;stroke-width:1.2;stroke-linecap:butt;stroke-linejoin:miter;stroke:rgb(0%,0%,100%);stroke-opacity:1;stroke-miterlimit:10;" d="M 137.886719 141.039062 L 127.863281 147.132812 "/>
<path style="fill:none;stroke-width:1.2;stroke-linecap:butt;stroke-linejoin:miter;stroke:rgb(0%,0%,0%);stroke-opacity:1;stroke-miterlimit:10;" d="M 127.863281 147.132812 L 117.839844 153.226562 "/>
<path style=" stroke:none;fill-rule:nonzero;fill:rgb(100%,100%,100%);fill-opacity:1;" d="M 132.808594 126.621094 L 141.808594 126.621094 L 141.808594 140.621094 L 132.808594 140.621094 Z M 132.808594 126.621094 "/>
<g style="fill:rgb(0%,0%,100%);fill-opacity:1;">
  <use xlink:href="#glyph0-1" x="132.808594" y="137.759766"/>
</g>
<path style="fill:none;stroke-width:1.2;stroke-linecap:butt;stroke-linejoin:miter;stroke:rgb(0%,0%,0%);stroke-opacity:1;stroke-miterlimit:10;" d="M 111.75 148.851562 L 98.890625 141.808594 "/>
<path style="fill:none;stroke-width:1.2;stroke-linecap:butt;stroke-linejoin:miter;stroke:rgb(0%,0%,100%);stroke-opacity:1;stroke-miterlimit:10;" d="M 98.890625 141.808594 L 86.027344 134.769531 "/>
<path style="fill:none;stroke-width:1.2;stroke-linecap:butt;stroke-linejoin:miter;stroke:rgb(0%,0%,100%);stroke-opacity:1;stroke-miterlimit:10;" d="M 86.027344 134.769531 L 73.5 142.382812 "/>
<path style="fill:none;stroke-width:1.2;stroke-linecap:butt;stroke-linejoin:miter;stroke:rgb(0%,0%,0%);stroke-opacity:1;stroke-miterlimit:10;" d="M 73.5 142.382812 L 60.972656 150 "/>
<path style="fill:none;stroke-width:1.2;stroke-linecap:butt;stroke-linejoin:miter;stroke:rgb(0%,0%,100%);stroke-opacity:1;stroke-miterlimit:10;" d="M 86.027344 134.769531 L 85.699219 120.109375 "/>
<path style="fill:none;stroke-width:1.2;stroke-linecap:butt;stroke-linejoin:miter;stroke:rgb(0%,0%,0%);stroke-opacity:1;stroke-miterlimit:10;" d="M 85.699219 120.109375 L 85.367188 105.449219 "/>
<path style=" stroke:none;fill-rule:nonzero;fill:rgb(100%,100%,100%);fill-opacity:1;" d="M 82.027344 127.769531 L 91.027344 127.769531 L 91.027344 141.769531 L 82.027344 141.769531 Z M 82.027344 127.769531 "/>
<g style="fill:rgb(0%,0%,100%);fill-opacity:1;">
  <use xlink:href="#glyph0-1" x="82.027344" y="138.908203"/>
</g>
<path style="fill:none;stroke-width:1.2;stroke-linecap:butt;stroke-linejoin:miter;stroke:rgb(0%,0%,0%);stroke-opacity:1;stroke-miterlimit:10;" d="M 62.628906 146.972656 L 49.765625 139.929688 "/>
<path style="fill:none;stroke-width:1.2;stroke-linecap:butt;stroke-linejoin:miter;stroke:rgb(100%,0%,0%);stroke-opacity:1;stroke-miterlimit:10;" d="M 49.765625 139.929688 L 36.90625 132.890625 "/>
<path style="fill:none;stroke-width:1.2;stroke-linecap:butt;stroke-linejoin:miter;stroke:rgb(0%,0%,0%);stroke-opacity:1;stroke-miterlimit:10;" d="M 59.3125 153.027344 L 46.453125 145.984375 "/>
<path style="fill:none;stroke-width:1.2;stroke-linecap:butt;stroke-linejoin:miter;stroke:rgb(100%,0%,0%);stroke-opacity:1;stroke-miterlimit:10;" d="M 46.453125 145.984375 L 33.59375 138.941406 "/>
<path style=" stroke:none;fill-rule:nonzero;fill:rgb(100%,100%,100%);fill-opacity:1;" d="M 25.25 128.914062 L 35.25 128.914062 L 35.25 142.914062 L 25.25 142.914062 Z M 25.25 128.914062 "/>
<g style="fill:rgb(100%,0%,0%);fill-opacity:1;">
  <use xlink:href="#glyph0-2" x="25.25" y="140.052734"/>
</g>
<path style="fill:none;stroke-width:1.2;stroke-linecap:butt;stroke-linejoin:miter;stroke:rgb(0%,0%,100%);stroke-opacity:1;stroke-miterlimit:10;" d="M 187.585938 132.472656 L 200.449219 139.515625 "/>
<path style="fill:none;stroke-width:1.2;stroke-linecap:butt;stroke-linejoin:miter;stroke:rgb(0%,0%,0%);stroke-opacity:1;stroke-miterlimit:10;" d="M 200.449219 139.515625 L 213.308594 146.558594 "/>
<path style=" stroke:none;fill-rule:nonzero;fill:rgb(100%,100%,100%);fill-opacity:1;" d="M 178.585938 125.472656 L 196.585938 125.472656 L 196.585938 139.472656 L 178.585938 139.472656 Z M 178.585938 125.472656 "/>
<g style="fill:rgb(0%,0%,100%);fill-opacity:1;">
  <use xlink:href="#glyph0-1" x="178.585938" y="136.611328"/>
  <use xlink:href="#glyph0-3" x="187.5625" y="136.611328"/>
</g>
<path style="fill:none;stroke-width:1.2;stroke-linecap:butt;stroke-linejoin:miter;stroke:rgb(0%,0%,0%);stroke-opacity:1;stroke-miterlimit:10;" d="M 213.308594 146.558594 L 213.972656 175.875 "/>
<path style="fill:none;stroke-width:1.2;stroke-linecap:butt;stroke-linejoin:miter;stroke:rgb(0%,0%,0%);stroke-opacity:1;stroke-miterlimit:10;" d="M 220.273438 149.332031 L 220.804688 172.789062 "/>
<path style="fill:none;stroke-width:1.2;stroke-linecap:butt;stroke-linejoin:miter;stroke:rgb(0%,0%,0%);stroke-opacity:1;stroke-miterlimit:10;" d="M 238.367188 131.324219 L 213.308594 146.558594 "/>
<path style="fill:none;stroke-width:1.2;stroke-linecap:butt;stroke-linejoin:miter;stroke:rgb(0%,0%,0%);stroke-opacity:1;stroke-miterlimit:10;" d="M 213.972656 175.875 L 239.691406 189.960938 "/>
<path style="fill:none;stroke-width:1.2;stroke-linecap:butt;stroke-linejoin:miter;stroke:rgb(0%,0%,0%);stroke-opacity:1;stroke-miterlimit:10;" d="M 239.691406 189.960938 L 264.75 174.726562 "/>
<path style="fill:none;stroke-width:1.2;stroke-linecap:butt;stroke-linejoin:miter;stroke:rgb(0%,0%,0%);stroke-opacity:1;stroke-miterlimit:10;" d="M 238.613281 182.542969 L 258.660156 170.355469 "/>
<path style="fill:none;stroke-width:1.2;stroke-linecap:butt;stroke-linejoin:miter;stroke:rgb(0%,0%,0%);stroke-opacity:1;stroke-miterlimit:10;" d="M 264.75 174.726562 L 264.085938 145.410156 "/>
<path style="fill:none;stroke-width:1.2;stroke-linecap:butt;stroke-linejoin:miter;stroke:rgb(0%,0%,0%);stroke-opacity:1;stroke-miterlimit:10;" d="M 264.085938 145.410156 L 238.367188 131.324219 "/>
<path style="fill:none;stroke-width:1.2;stroke-linecap:butt;stroke-linejoin:miter;stroke:rgb(0%,0%,0%);stroke-opacity:1;stroke-miterlimit:10;" d="M 258.203125 150.054688 L 237.625 138.785156 "/>
</g>
</svg>

<svg xmlns="http://www.w3.org/2000/svg" xmlns:xlink="http://www.w3.org/1999/xlink" width="300pt" height="300pt" viewBox="0 0 300 300"><defs><symbol overflow="visible"><path d="M.594 2.125V-8.47h6V2.126zm.672-.672h4.671V-7.78h-4.67zm0 0"/></symbol><symbol overflow="visible" id="a"><path d="M1.172-8.75h1.594l3.89 7.313V-8.75h1.14V0H6.204L2.328-7.313V0H1.172zm0 0"/></symbol><symbol overflow="visible" id="b"><path d="M4.734-7.953c-.867 0-1.554.324-2.062.97-.5.635-.75 1.51-.75 2.624 0 1.094.25 1.965.75 2.61.508.637 1.195.953 2.062.953.852 0 1.532-.316 2.032-.953.507-.645.765-1.516.765-2.61 0-1.113-.257-1.988-.764-2.624-.5-.645-1.18-.97-2.032-.97zm0-.953c1.22 0 2.192.414 2.922 1.234.74.824 1.11 1.93 1.11 3.313 0 1.376-.37 2.477-1.11 3.298C6.926-.24 5.953.17 4.734.17c-1.23 0-2.214-.41-2.953-1.234C1.04-1.882.673-2.984.673-4.36c0-1.382.367-2.488 1.11-3.312.738-.82 1.722-1.234 2.952-1.234zm0 0"/></symbol><symbol overflow="visible" id="c"><path d="M1.172-8.75H2.36v3.594h4.296V-8.75h1.188V0H6.656v-4.172H2.36V0H1.17zm0 0"/></symbol></defs><g><path fill="#fff" d="M0 0h300v300H0z"/><path d="M36.574 194.55l25.06-15.234M61.633 179.316l12.86 7.043" stroke-width="1.2" stroke="#000" stroke-miterlimit="10" fill="none"/><path d="M74.492 186.36l12.863 7.042" stroke-width="1.2" stroke="#00f" stroke-miterlimit="10" fill="none"/><path d="M67.52 174.676l10.29 5.633" stroke-width="1.2" stroke="#000" stroke-miterlimit="10" fill="none"/><path d="M77.81 180.31l10.288 5.63" stroke-width="1.2" stroke="#00f" stroke-miterlimit="10" fill="none"/><path d="M60.973 150l.66 29.316" stroke-width="1.2" stroke="#000" stroke-miterlimit="10" fill="none"/><path d="M87.355 193.402l12.528-7.617" stroke-width="1.2" stroke="#00f" stroke-miterlimit="10" fill="none"/><path d="M99.883 185.785l12.53-7.613" stroke-width="1.2" stroke="#000" stroke-miterlimit="10" fill="none"/><path d="M83.355 186.402h9v14h-9zm0 0" fill="#fff"/><use xlink:href="#a" x="83.355" y="197.541" fill="#00f"/><path d="M112.414 178.172l25.72 14.082M118.297 173.527l20.578 11.266M111.75 148.852l.664 29.32M138.133 192.254l12.53-7.613" stroke-width="1.2" stroke="#000" stroke-miterlimit="10" fill="none"/><path d="M150.664 184.64l12.527-7.617M163.19 177.023l-.33-14.66" stroke-width="1.2" stroke="#00f" stroke-miterlimit="10" fill="none"/><path d="M162.86 162.363l-.333-14.656" stroke-width="1.2" stroke="#000" stroke-miterlimit="10" fill="none"/><path d="M156.227 174.246l-.266-11.726" stroke-width="1.2" stroke="#00f" stroke-miterlimit="10" fill="none"/><path d="M155.96 162.52l-.265-11.727" stroke-width="1.2" stroke="#000" stroke-miterlimit="10" fill="none"/><path d="M159.19 170.023h9v14h-9zm0 0" fill="#fff"/><use xlink:href="#a" x="159.191" y="181.162" fill="#00f"/><path d="M162.527 147.707l-12.86-7.043" stroke-width="1.2" stroke="#000" stroke-miterlimit="10" fill="none"/><path d="M149.668 140.664l-12.86-7.043" stroke-width="1.2" stroke="#00f" stroke-miterlimit="10" fill="none"/><path d="M162.527 147.707l12.532-7.617" stroke-width="1.2" stroke="#000" stroke-miterlimit="10" fill="none"/><path d="M175.06 140.09l12.526-7.617M136.81 133.62l-12.533 7.618" stroke-width="1.2" stroke="#00f" stroke-miterlimit="10" fill="none"/><path d="M124.277 141.238l-12.527 7.614" stroke-width="1.2" stroke="#000" stroke-miterlimit="10" fill="none"/><path d="M137.887 141.04l-10.024 6.093" stroke-width="1.2" stroke="#00f" stroke-miterlimit="10" fill="none"/><path d="M127.863 147.133l-10.023 6.094" stroke-width="1.2" stroke="#000" stroke-miterlimit="10" fill="none"/><path d="M132.81 126.62h9v14h-9zm0 0" fill="#fff"/><use xlink:href="#a" x="132.809" y="137.76" fill="#00f"/><path d="M111.75 148.852l-12.86-7.043" stroke-width="1.2" stroke="#000" stroke-miterlimit="10" fill="none"/><path d="M98.89 141.81l-12.863-7.04M86.027 134.77L73.5 142.383" stroke-width="1.2" stroke="#00f" stroke-miterlimit="10" fill="none"/><path d="M73.5 142.383L60.973 150" stroke-width="1.2" stroke="#000" stroke-miterlimit="10" fill="none"/><path d="M86.027 134.77l-.328-14.66" stroke-width="1.2" stroke="#00f" stroke-miterlimit="10" fill="none"/><path d="M85.7 120.11l-.333-14.66" stroke-width="1.2" stroke="#000" stroke-miterlimit="10" fill="none"/><path d="M82.027 127.77h9v14h-9zm0 0" fill="#fff"/><use xlink:href="#a" x="82.027" y="138.908" fill="#00f"/><path d="M62.63 146.973l-12.864-7.043" stroke-width="1.2" stroke="#000" stroke-miterlimit="10" fill="none"/><path d="M49.766 139.93l-12.86-7.04" stroke-width="1.2" stroke="#f00" stroke-miterlimit="10" fill="none"/><path d="M59.313 153.027l-12.86-7.043" stroke-width="1.2" stroke="#000" stroke-miterlimit="10" fill="none"/><path d="M46.453 145.984l-12.86-7.043" stroke-width="1.2" stroke="#f00" stroke-miterlimit="10" fill="none"/><path d="M25.25 128.914h10v14h-10zm0 0" fill="#fff"/><use xlink:href="#b" x="25.25" y="140.053" fill="#f00"/><path d="M187.586 132.473l12.863 7.043" stroke-width="1.2" stroke="#00f" stroke-miterlimit="10" fill="none"/><path d="M200.45 139.516l12.86 7.043" stroke-width="1.2" stroke="#000" stroke-miterlimit="10" fill="none"/><path d="M178.586 125.473h18v14h-18zm0 0" fill="#fff"/><g fill="#00f"><use xlink:href="#a" x="178.586" y="136.611"/><use xlink:href="#c" x="187.563" y="136.611"/></g><path d="M213.31 146.56l.663 29.315M220.273 149.332l.532 23.457M238.367 131.324L213.31 146.56M213.973 175.875l25.718 14.086M239.69 189.96l25.06-15.233M238.613 182.543l20.047-12.188M264.75 174.727l-.664-29.317M264.086 145.41l-25.72-14.086M258.203 150.055l-20.578-11.27" stroke-width="1.2" stroke="#000" stroke-miterlimit="10" fill="none"/></g></svg>
